.local/share/icons/Gruvbox-Plus-Dark/panel/16/mellowplayer-panel.svg

<svg xmlns="http://www.w3.org/2000/svg" width="16" height="16" version="1.1">
 <defs>
  <style id="current-color-scheme" type="text/css">
   .ColorScheme-Text { color:#ebdbb2; } .ColorScheme-Highlight { color:#458588; }
  </style>
 </defs>
 <path style="fill:currentColor" class="ColorScheme-Text" d="M 5.5 1 A 4.5 4.5 0 0 0 1 5.5 A 4.5 4.5 0 0 0 1.2402344 6.9335938 A 2.5 2.5 0 0 1 3.5 5.5 A 2.5 2.5 0 0 1 4 5.5546875 L 4 3.5175781 A 0.52959321 0.51757544 0 0 1 4.4882812 3.0019531 A 0.52959321 0.51757544 0 0 1 4.5410156 3 A 0.52959321 0.51757544 0 0 1 4.7929688 3.0703125 L 6.484375 4.0253906 A 2.5 2.5 0 0 1 8.5 3 A 2.5 2.5 0 0 1 9.3261719 3.1425781 A 4.5 4.5 0 0 0 5.5 1 z M 10.5 3.5 A 4.5 4.5 0 0 0 10.035156 3.5273438 A 2.5 2.5 0 0 1 11 5.5 A 2.5 2.5 0 0 1 10.804688 6.4628906 L 12.736328 7.5527344 A 0.52959321 0.51757544 0 0 1 12.736328 8.4472656 L 10.806641 9.5371094 A 2.5 2.5 0 0 1 11 10.5 A 2.5 2.5 0 0 1 10.029297 12.472656 A 4.5 4.5 0 0 0 10.5 12.5 A 4.5 4.5 0 0 0 15 8 A 4.5 4.5 0 0 0 10.5 3.5 z M 1.2402344 9.0644531 A 4.5 4.5 0 0 0 1 10.5 A 4.5 4.5 0 0 0 5.5 15 A 4.5 4.5 0 0 0 9.3222656 12.857422 A 2.5 2.5 0 0 1 8.5 13 A 2.5 2.5 0 0 1 6.4863281 11.976562 L 4.7929688 12.931641 A 0.52959321 0.51757544 0 0 1 4 12.484375 L 4 10.449219 A 2.5 2.5 0 0 1 3.5 10.5 A 2.5 2.5 0 0 1 1.2402344 9.0644531 z"/>
 <path style="opacity:0.3;fill:currentColor" class="ColorScheme-Text" d="M 8.5 3 A 2.5 2.5 0 0 0 6.484375 4.0253906 L 8.765625 5.3125 L 10.804688 6.4628906 A 2.5 2.5 0 0 0 11 5.5 A 2.5 2.5 0 0 0 8.5 3 z M 3.5 5.5 A 2.5 2.5 0 0 0 1 8 A 2.5 2.5 0 0 0 3.5 10.5 A 2.5 2.5 0 0 0 4 10.449219 L 4 8 L 4 5.5546875 A 2.5 2.5 0 0 0 3.5 5.5 z M 10.806641 9.5371094 L 8.765625 10.689453 L 6.4863281 11.976562 A 2.5 2.5 0 0 0 8.5 13 A 2.5 2.5 0 0 0 11 10.5 A 2.5 2.5 0 0 0 10.806641 9.5371094 z"/>
</svg>

<svg width="16" height="16" version="1.1" xmlns="http://www.w3.org/2000/svg">
  <defs>
    <style id="current-color-scheme" type="text/css">.ColorScheme-Text { color:#ebdbb2; } .ColorScheme-Highlight { color:#458588; } .ColorScheme-NeutralText { color:#fe8019; } .ColorScheme-PositiveText { color:#689d6a; } .ColorScheme-NegativeText { color:#fb4934; }</style>
  </defs>
  <path class="ColorScheme-Text" d="m5.5 1a4.5 4.5 0 0 0-4.5 4.5 4.5 4.5 0 0 0 0.2402 1.434 2.5 2.5 0 0 1 2.26-1.434 2.5 2.5 0 0 1 0.5 0.05469v-2.037a0.5296 0.5176 0 0 1 0.4883-0.5156 0.5296 0.5176 0 0 1 0.05273-0.001953 0.5296 0.5176 0 0 1 0.252 0.07031l1.691 0.9551a2.5 2.5 0 0 1 2.016-1.025 2.5 2.5 0 0 1 0.8262 0.1426 4.5 4.5 0 0 0-3.826-2.143zm5 2.5a4.5 4.5 0 0 0-0.4648 0.02734 2.5 2.5 0 0 1 0.9648 1.973 2.5 2.5 0 0 1-0.1953 0.9629l1.932 1.09a0.5296 0.5176 0 0 1 0 0.8945l-1.93 1.09a2.5 2.5 0 0 1 0.1934 0.9629 2.5 2.5 0 0 1-0.9707 1.973 4.5 4.5 0 0 0 0.4707 0.02734 4.5 4.5 0 0 0 4.5-4.5 4.5 4.5 0 0 0-4.5-4.5zm-9.26 5.564a4.5 4.5 0 0 0-0.2402 1.436 4.5 4.5 0 0 0 4.5 4.5 4.5 4.5 0 0 0 3.822-2.143 2.5 2.5 0 0 1-0.8223 0.1426 2.5 2.5 0 0 1-2.014-1.023l-1.693 0.9551a0.5296 0.5176 0 0 1-0.793-0.4473v-2.035a2.5 2.5 0 0 1-0.5 0.05078 2.5 2.5 0 0 1-2.26-1.436z" fill="currentColor"/>
  <path class="ColorScheme-Text" d="m8.5 3a2.5 2.5 0 0 0-2.016 1.025l4.32 2.438a2.5 2.5 0 0 0 0.1953-0.9629 2.5 2.5 0 0 0-2.5-2.5zm-5 2.5a2.5 2.5 0 0 0-2.5 2.5 2.5 2.5 0 0 0 2.5 2.5 2.5 2.5 0 0 0 0.5-0.05078v-2.449-2.445a2.5 2.5 0 0 0-0.5-0.05469zm7.307 4.037-4.32 2.439a2.5 2.5 0 0 0 2.014 1.023 2.5 2.5 0 0 0 2.5-2.5 2.5 2.5 0 0 0-0.1934-0.9629z" fill="currentColor" opacity=".3"/>
</svg>
